resources/icons/cisco/dualmodeap.svg

<?xml version="1.0" encoding="UTF-8"?>
<svg xmlns="http://www.w3.org/2000/svg" xmlns:xlink="http://www.w3.org/1999/xlink" width="262pt" height="200pt" viewBox="0 0 262 200" version="1.1">
<g id="surface1">
<path style="fill:none;stroke-width:0.5625;stroke-linecap:round;stroke-linejoin:miter;stroke:rgb(100%,100%,100%);stroke-opacity:1;stroke-miterlimit:1;" d="M 35.517772 27.125 C 35.517772 27.125 33.07073 33.414746 30.127833 27.107227 C 27.191794 20.803125 24.741323 27.092187 24.741323 27.092187 C 24.741323 27.092187 22.294967 33.386035 19.354813 27.081934 C 16.420831 20.777832 13.984763 27.120898 13.984763 27.120898 C 13.984763 27.120898 11.541836 33.414746 8.603739 27.107227 C 5.664271 20.803125 3.228203 27.086719 3.228203 27.086719 " transform="matrix(5.695652,0,0,5.714286,0,0)"/>
<path style="fill:none;stroke-width:1.125;stroke-linecap:round;stroke-linejoin:miter;stroke:rgb(100%,100%,100%);stroke-opacity:1;stroke-miterlimit:1;" d="M 3.228203 27.125 C 3.228203 27.125 5.673873 33.414746 8.614027 27.107227 C 11.552809 20.803125 14.003966 27.092187 14.003966 27.092187 C 14.003966 27.092187 16.44415 33.386035 19.384303 27.081934 C 22.323771 20.777832 24.761212 27.120898 24.761212 27.120898 C 24.761212 27.120898 27.197281 33.414746 30.140864 27.107227 C 33.076217 20.803125 35.517772 27.086719 35.517772 27.086719 " transform="matrix(5.695652,0,0,5.714286,0,0)"/>
<path style="fill:none;stroke-width:0.5625;stroke-linecap:round;stroke-linejoin:miter;stroke:rgb(0%,0%,0%);stroke-opacity:1;stroke-miterlimit:1;" d="M 36.084268 27.125 C 36.084268 27.125 33.637911 33.414746 30.694328 27.107227 C 27.758975 20.803125 25.307818 27.092187 25.307818 27.092187 C 25.307818 27.092187 22.860776 33.386035 19.921994 27.081934 C 16.987327 20.777832 14.551944 27.120898 14.551944 27.120898 C 14.551944 27.120898 12.109703 33.414746 9.170235 27.107227 C 6.230081 20.803125 3.794012 27.092187 3.794012 27.092187 " transform="matrix(5.695652,0,0,5.714286,0,0)"/>
<path style="fill:none;stroke-width:1.125;stroke-linecap:round;stroke-linejoin:miter;stroke:rgb(0%,0%,0%);stroke-opacity:1;stroke-miterlimit:1;" d="M 3.794012 27.125 C 3.794012 27.125 6.239683 33.414746 9.179837 27.107227 C 12.119305 20.803125 14.569776 27.092187 14.569776 27.092187 C 14.569776 27.092187 17.011331 33.386035 19.950799 27.081934 C 22.890953 20.777832 25.327708 27.120898 25.327708 27.120898 C 25.327708 27.120898 27.763776 33.414746 30.708045 27.107227 C 33.642712 20.803125 36.084268 27.092187 36.084268 27.092187 " transform="matrix(5.695652,0,0,5.714286,0,0)"/>
<path style="fill:none;stroke-width:0.5625;stroke-linecap:round;stroke-linejoin:miter;stroke:rgb(100%,100%,100%);stroke-opacity:1;stroke-miterlimit:1;" d="M 35.517772 27.125 C 35.517772 27.125 33.07073 33.414746 30.127833 27.107227 C 27.191794 20.803125 24.741323 27.092187 24.741323 27.092187 C 24.741323 27.092187 22.294967 33.386035 19.354813 27.081934 C 16.420831 20.777832 13.984763 27.120898 13.984763 27.120898 C 13.984763 27.120898 11.541836 33.414746 8.603739 27.107227 C 5.664271 20.803125 3.228203 27.086719 3.228203 27.086719 " transform="matrix(5.695652,0,0,5.714286,0,0)"/>
<path style="fill:none;stroke-width:1.125;stroke-linecap:round;stroke-linejoin:miter;stroke:rgb(100%,100%,100%);stroke-opacity:1;stroke-miterlimit:1;" d="M 3.228203 27.125 C 3.228203 27.125 5.673873 33.414746 8.614027 27.107227 C 11.552809 20.803125 14.003966 27.092187 14.003966 27.092187 C 14.003966 27.092187 16.44415 33.386035 19.384303 27.081934 C 22.323771 20.777832 24.761212 27.120898 24.761212 27.120898 C 24.761212 27.120898 27.197281 33.414746 30.140864 27.107227 C 33.076217 20.803125 35.517772 27.086719 35.517772 27.086719 " transform="matrix(5.695652,0,0,5.714286,0,0)"/>
<path style=" stroke:none;fill-rule:nonzero;fill:rgb(0.784314%,43.921569%,62.352941%);fill-opacity:1;" d="M 4.304688 50.515625 L 59.097656 9.886719 L 259.191406 9.886719 L 219.367188 50.515625 L 4.304688 50.515625 "/>
<path style="fill:none;stroke-width:0.5;stroke-linecap:butt;stroke-linejoin:miter;stroke:rgb(100%,100%,100%);stroke-opacity:1;stroke-miterlimit:4;" d="M 0.755785 8.840234 L 10.375924 1.730176 L 45.506888 1.730176 L 38.51485 8.840234 Z M 0.755785 8.840234 " transform="matrix(5.695652,0,0,5.714286,0,0)"/>
<path style=" stroke:none;fill-rule:nonzero;fill:rgb(0.784314%,43.921569%,62.352941%);fill-opacity:1;" d="M 219.367188 189.378906 L 259.191406 148.890625 L 259.191406 10.027344 L 219.367188 50.515625 L 219.367188 189.371094 "/>
<path style="fill:none;stroke-width:0.5;stroke-linecap:butt;stroke-linejoin:miter;stroke:rgb(100%,100%,100%);stroke-opacity:1;stroke-miterlimit:4;" d="M 38.51485 33.141992 L 45.506888 26.057227 L 45.506888 1.754102 L 38.51485 8.840234 L 38.51485 33.142676 Z M 38.51485 33.141992 " transform="matrix(5.695652,0,0,5.714286,0,0)"/>
<path style=" stroke:none;fill-rule:nonzero;fill:rgb(0.784314%,43.921569%,62.352941%);fill-opacity:1;" d="M 4.613281 189.433594 L 219.367188 189.433594 L 219.367188 50.515625 L 4.613281 50.515625 Z M 4.613281 189.433594 "/>
<path style="fill:none;stroke-width:0.5;stroke-linecap:butt;stroke-linejoin:miter;stroke:rgb(100%,100%,100%);stroke-opacity:1;stroke-miterlimit:4;" d="M 0.809965 33.150195 L 38.51485 33.150195 L 38.51485 8.840234 L 0.809965 8.840234 Z M 0.809965 33.150195 " transform="matrix(5.695652,0,0,5.714286,0,0)"/>
<path style="fill:none;stroke-width:0.5625;stroke-linecap:round;stroke-linejoin:miter;stroke:rgb(100%,100%,100%);stroke-opacity:1;stroke-miterlimit:1;" d="M 35.517772 15.056152 C 35.517772 15.056152 33.07073 21.343848 30.127833 15.036328 C 27.191794 8.732227 24.741323 15.021973 24.741323 15.021973 C 24.741323 15.021973 22.294967 21.31582 19.354813 15.011719 C 16.420831 8.708301 13.984763 15.050684 13.984763 15.050684 C 13.984763 15.050684 11.541836 21.343848 8.603739 15.036328 C 5.664271 8.732227 3.228203 15.017187 3.228203 15.017187 " transform="matrix(5.695652,0,0,5.714286,0,0)"/>
<path style="fill:none;stroke-width:1.125;stroke-linecap:round;stroke-linejoin:miter;stroke:rgb(100%,100%,100%);stroke-opacity:1;stroke-miterlimit:1;" d="M 3.228203 15.056152 C 3.228203 15.056152 5.673873 21.343848 8.614027 15.036328 C 11.552809 8.732227 14.003966 15.021973 14.003966 15.021973 C 14.003966 15.021973 16.44415 21.31582 19.384303 15.011719 C 22.323771 8.708301 24.761212 15.050684 24.761212 15.050684 C 24.761212 15.050684 27.197281 21.343848 30.140864 15.036328 C 33.076217 8.732227 35.517772 15.017187 35.517772 15.017187 " transform="matrix(5.695652,0,0,5.714286,0,0)"/>
<path style="fill:none;stroke-width:0.5625;stroke-linecap:round;stroke-linejoin:miter;stroke:rgb(0%,0%,0%);stroke-opacity:1;stroke-miterlimit:1;" d="M 36.084268 15.056152 C 36.084268 15.056152 33.637911 21.343848 30.694328 15.036328 C 27.758975 8.732227 25.307818 15.021973 25.307818 15.021973 C 25.307818 15.021973 22.860776 21.31582 19.921994 15.011719 C 16.987327 8.708301 14.551944 15.050684 14.551944 15.050684 C 14.551944 15.050684 12.109703 21.343848 9.170235 15.036328 C 6.230081 8.732227 3.794012 15.017187 3.794012 15.017187 " transform="matrix(5.695652,0,0,5.714286,0,0)"/>
<path style="fill:none;stroke-width:1.125;stroke-linecap:round;stroke-linejoin:miter;stroke:rgb(0%,0%,0%);stroke-opacity:1;stroke-miterlimit:1;" d="M 3.794012 15.056152 C 3.794012 15.056152 6.239683 21.343848 9.179837 15.036328 C 12.119305 8.732227 14.569776 15.021973 14.569776 15.021973 C 14.569776 15.021973 17.011331 21.31582 19.950799 15.011719 C 22.890953 8.708301 25.327708 15.050684 25.327708 15.050684 C 25.327708 15.050684 27.763776 21.343848 30.708045 15.036328 C 33.642712 8.732227 36.084268 15.017187 36.084268 15.017187 " transform="matrix(5.695652,0,0,5.714286,0,0)"/>
<path style="fill:none;stroke-width:0.5625;stroke-linecap:round;stroke-linejoin:miter;stroke:rgb(100%,100%,100%);stroke-opacity:1;stroke-miterlimit:1;" d="M 35.517772 15.056152 C 35.517772 15.056152 33.07073 21.343848 30.127833 15.036328 C 27.191794 8.732227 24.741323 15.021973 24.741323 15.021973 C 24.741323 15.021973 22.294967 21.31582 19.354813 15.011719 C 16.420831 8.708301 13.984763 15.050684 13.984763 15.050684 C 13.984763 15.050684 11.541836 21.343848 8.603739 15.036328 C 5.664271 8.732227 3.228203 15.017187 3.228203 15.017187 " transform="matrix(5.695652,0,0,5.714286,0,0)"/>
<path style="fill:none;stroke-width:1.125;stroke-linecap:round;stroke-linejoin:miter;stroke:rgb(100%,100%,100%);stroke-opacity:1;stroke-miterlimit:1;" d="M 3.228203 15.056152 C 3.228203 15.056152 5.673873 21.343848 8.614027 15.036328 C 11.552809 8.732227 14.003966 15.021973 14.003966 15.021973 C 14.003966 15.021973 16.44415 21.31582 19.384303 15.011719 C 22.323771 8.708301 24.761212 15.050684 24.761212 15.050684 C 24.761212 15.050684 27.197281 21.343848 30.140864 15.036328 C 33.076217 8.732227 35.517772 15.017187 35.517772 15.017187 " transform="matrix(5.695652,0,0,5.714286,0,0)"/>
<path style="fill:none;stroke-width:0.5625;stroke-linecap:round;stroke-linejoin:miter;stroke:rgb(0%,0%,0%);stroke-opacity:1;stroke-miterlimit:1;" d="M 36.084268 15.056152 C 36.084268 15.056152 33.637911 21.343848 30.694328 15.036328 C 27.758975 8.732227 25.307818 15.021973 25.307818 15.021973 C 25.307818 15.021973 22.860776 21.31582 19.921994 15.011719 C 16.987327 8.708301 14.551944 15.050684 14.551944 15.050684 C 14.551944 15.050684 12.109703 21.343848 9.170235 15.036328 C 6.230081 8.732227 3.794012 15.017187 3.794012 15.017187 " transform="matrix(5.695652,0,0,5.714286,0,0)"/>
<path style="fill:none;stroke-width:1.125;stroke-linecap:round;stroke-linejoin:miter;stroke:rgb(0%,0%,0%);stroke-opacity:1;stroke-miterlimit:1;" d="M 3.794012 15.056152 C 3.794012 15.056152 6.239683 21.343848 9.179837 15.036328 C 12.119305 8.732227 14.569776 15.021973 14.569776 15.021973 C 14.569776 15.021973 17.011331 21.31582 19.950799 15.011719 C 22.890953 8.708301 25.327708 15.050684 25.327708 15.050684 C 25.327708 15.050684 27.763776 21.343848 30.708045 15.036328 C 33.642712 8.732227 36.084268 15.017187 36.084268 15.017187 " transform="matrix(5.695652,0,0,5.714286,0,0)"/>
<path style="fill:none;stroke-width:0.5625;stroke-linecap:round;stroke-linejoin:miter;stroke:rgb(100%,100%,100%);stroke-opacity:1;stroke-miterlimit:1;" d="M 35.517772 15.056152 C 35.517772 15.056152 33.07073 21.343848 30.127833 15.036328 C 27.191794 8.732227 24.741323 15.021973 24.741323 15.021973 C 24.741323 15.021973 22.294967 21.31582 19.354813 15.011719 C 16.420831 8.708301 13.984763 15.050684 13.984763 15.050684 C 13.984763 15.050684 11.541836 21.343848 8.603739 15.036328 C 5.664271 8.732227 3.228203 15.017187 3.228203 15.017187 " transform="matrix(5.695652,0,0,5.714286,0,0)"/>
<path style="fill:none;stroke-width:1.125;stroke-linecap:round;stroke-linejoin:miter;stroke:rgb(100%,100%,100%);stroke-opacity:1;stroke-miterlimit:1;" d="M 3.228203 15.056152 C 3.228203 15.056152 5.673873 21.343848 8.614027 15.036328 C 11.552809 8.732227 14.003966 15.021973 14.003966 15.021973 C 14.003966 15.021973 16.44415 21.31582 19.384303 15.011719 C 22.323771 8.708301 24.761212 15.050684 24.761212 15.050684 C 24.761212 15.050684 27.197281 21.343848 30.140864 15.036328 C 33.076217 8.732227 35.517772 15.017187 35.517772 15.017187 " transform="matrix(5.695652,0,0,5.714286,0,0)"/>
<path style="fill:none;stroke-width:0.5625;stroke-linecap:round;stroke-linejoin:miter;stroke:rgb(0%,0%,0%);stroke-opacity:1;stroke-miterlimit:1;" d="M 36.084268 27.125 C 36.084268 27.125 33.637911 33.414746 30.694328 27.107227 C 27.758975 20.803125 25.307818 27.092187 25.307818 27.092187 C 25.307818 27.092187 22.860776 33.386035 19.921994 27.081934 C 16.987327 20.777832 14.551944 27.120898 14.551944 27.120898 C 14.551944 27.120898 12.109703 33.414746 9.170235 27.107227 C 6.230081 20.803125 3.794012 27.092187 3.794012 27.092187 " transform="matrix(5.695652,0,0,5.714286,0,0)"/>
<path style="fill:none;stroke-width:1.125;stroke-linecap:round;stroke-linejoin:miter;stroke:rgb(0%,0%,0%);stroke-opacity:1;stroke-miterlimit:1;" d="M 3.794012 27.125 C 3.794012 27.125 6.239683 33.414746 9.179837 27.107227 C 12.119305 20.803125 14.569776 27.092187 14.569776 27.092187 C 14.569776 27.092187 17.011331 33.386035 19.950799 27.081934 C 22.890953 20.777832 25.327708 27.120898 25.327708 27.120898 C 25.327708 27.120898 27.763776 33.414746 30.708045 27.107227 C 33.642712 20.803125 36.084268 27.092187 36.084268 27.092187 " transform="matrix(5.695652,0,0,5.714286,0,0)"/>
<path style="fill:none;stroke-width:0.5625;stroke-linecap:round;stroke-linejoin:miter;stroke:rgb(100%,100%,100%);stroke-opacity:1;stroke-miterlimit:1;" d="M 35.517772 27.125 C 35.517772 27.125 33.07073 33.414746 30.127833 27.107227 C 27.191794 20.803125 24.741323 27.092187 24.741323 27.092187 C 24.741323 27.092187 22.294967 33.386035 19.354813 27.081934 C 16.420831 20.777832 13.984763 27.120898 13.984763 27.120898 C 13.984763 27.120898 11.541836 33.414746 8.603739 27.107227 C 5.664271 20.803125 3.228203 27.086719 3.228203 27.086719 " transform="matrix(5.695652,0,0,5.714286,0,0)"/>
<path style="fill:none;stroke-width:1.125;stroke-linecap:round;stroke-linejoin:miter;stroke:rgb(100%,100%,100%);stroke-opacity:1;stroke-miterlimit:1;" d="M 3.228203 27.125 C 3.228203 27.125 5.673873 33.414746 8.614027 27.107227 C 11.552809 20.803125 14.003966 27.092187 14.003966 27.092187 C 14.003966 27.092187 16.44415 33.386035 19.384303 27.081934 C 22.323771 20.777832 24.761212 27.120898 24.761212 27.120898 C 24.761212 27.120898 27.197281 33.414746 30.140864 27.107227 C 33.076217 20.803125 35.517772 27.086719 35.517772 27.086719 " transform="matrix(5.695652,0,0,5.714286,0,0)"/>
</g>
</svg>

<svg xmlns="http://www.w3.org/2000/svg" viewBox="0 0 46.25 35" height="35" width="46.25"><path d="M35.518 27.125s-2.447 6.29-5.39-.018c-2.936-6.304-5.387-.015-5.387-.015s-2.446 6.294-5.386-.01c-2.934-6.304-5.37.039-5.37.039s-2.443 6.294-5.381-.014c-2.94-6.304-5.376-.02-5.376-.02" fill="none" stroke="#fff" stroke-width=".5625" stroke-linecap="round" stroke-miterlimit="1"/><path d="M3.228 27.125s2.446 6.29 5.386-.018c2.939-6.304 5.39-.015 5.39-.015s2.44 6.294 5.38-.01c2.94-6.304 5.377.039 5.377.039s2.436 6.294 5.38-.014c2.935-6.304 5.377-.02 5.377-.02" fill="none" stroke="#fff" stroke-width="1.125" stroke-linecap="round" stroke-miterlimit="1"/><path d="M36.084 27.125s-2.446 6.29-5.39-.018c-2.935-6.304-5.386-.015-5.386-.015s-2.447 6.294-5.386-.01c-2.935-6.304-5.37.039-5.37.039s-2.442 6.294-5.382-.014c-2.94-6.304-5.376-.015-5.376-.015" fill="none" stroke="#000" stroke-width=".5625" stroke-linecap="round" stroke-miterlimit="1"/><path d="M3.794 27.125s2.446 6.29 5.386-.018c2.939-6.304 5.39-.015 5.39-.015s2.441 6.294 5.381-.01c2.94-6.304 5.377.039 5.377.039s2.436 6.294 5.38-.014c2.935-6.304 5.376-.015 5.376-.015" fill="none" stroke="#000" stroke-width="1.125" stroke-linecap="round" stroke-miterlimit="1"/><path d="M35.518 27.125s-2.447 6.29-5.39-.018c-2.936-6.304-5.387-.015-5.387-.015s-2.446 6.294-5.386-.01c-2.934-6.304-5.37.039-5.37.039s-2.443 6.294-5.381-.014c-2.94-6.304-5.376-.02-5.376-.02" fill="none" stroke="#fff" stroke-width=".5625" stroke-linecap="round" stroke-miterlimit="1"/><path d="M3.228 27.125s2.446 6.29 5.386-.018c2.939-6.304 5.39-.015 5.39-.015s2.44 6.294 5.38-.01c2.94-6.304 5.377.039 5.377.039s2.436 6.294 5.38-.014c2.935-6.304 5.377-.02 5.377-.02" fill="none" stroke="#fff" stroke-width="1.125" stroke-linecap="round" stroke-miterlimit="1"/><path d="M.756 8.84l9.62-7.11h35.131l-6.992 7.11H.756" fill="#02709f"/><path d="M.756 8.84l9.62-7.11h35.131l-6.992 7.11H.756z" fill="none" stroke="#fff" stroke-width=".5"/><path d="M38.515 33.141l6.992-7.085V1.755L38.515 8.84V33.14" fill="#02709f"/><path d="M38.515 33.142l6.992-7.085V1.754L38.515 8.84v24.303z" fill="none" stroke="#fff" stroke-width=".5"/><path d="M.81 33.151h37.705V8.84H.81V33.15z" fill="#02709f"/><path d="M.81 33.15h37.705V8.84H.81v24.31z" fill="none" stroke="#fff" stroke-width=".5"/><path d="M35.518 15.056s-2.447 6.288-5.39-.02c-2.936-6.304-5.387-.014-5.387-.014s-2.446 6.294-5.386-.01c-2.934-6.304-5.37.039-5.37.039s-2.443 6.293-5.381-.015c-2.94-6.304-5.376-.019-5.376-.019" fill="none" stroke="#fff" stroke-width=".5625" stroke-linecap="round" stroke-miterlimit="1"/><path d="M3.228 15.056s2.446 6.288 5.386-.02c2.939-6.304 5.39-.014 5.39-.014s2.44 6.294 5.38-.01c2.94-6.304 5.377.039 5.377.039s2.436 6.293 5.38-.015c2.935-6.304 5.377-.019 5.377-.019" fill="none" stroke="#fff" stroke-width="1.125" stroke-linecap="round" stroke-miterlimit="1"/><path d="M36.084 15.056s-2.446 6.288-5.39-.02c-2.935-6.304-5.386-.014-5.386-.014s-2.447 6.294-5.386-.01c-2.935-6.304-5.37.039-5.37.039s-2.442 6.293-5.382-.015c-2.94-6.304-5.376-.019-5.376-.019" fill="none" stroke="#000" stroke-width=".5625" stroke-linecap="round" stroke-miterlimit="1"/><path d="M3.794 15.056s2.446 6.288 5.386-.02c2.939-6.304 5.39-.014 5.39-.014s2.441 6.294 5.381-.01c2.94-6.304 5.377.039 5.377.039s2.436 6.293 5.38-.015c2.935-6.304 5.376-.019 5.376-.019" fill="none" stroke="#000" stroke-width="1.125" stroke-linecap="round" stroke-miterlimit="1"/><path d="M35.518 15.056s-2.447 6.288-5.39-.02c-2.936-6.304-5.387-.014-5.387-.014s-2.446 6.294-5.386-.01c-2.934-6.304-5.37.039-5.37.039s-2.443 6.293-5.381-.015c-2.94-6.304-5.376-.019-5.376-.019" fill="none" stroke="#fff" stroke-width=".5625" stroke-linecap="round" stroke-miterlimit="1"/><path d="M3.228 15.056s2.446 6.288 5.386-.02c2.939-6.304 5.39-.014 5.39-.014s2.44 6.294 5.38-.01c2.94-6.304 5.377.039 5.377.039s2.436 6.293 5.38-.015c2.935-6.304 5.377-.019 5.377-.019" fill="none" stroke="#fff" stroke-width="1.125" stroke-linecap="round" stroke-miterlimit="1"/><path d="M36.084 15.056s-2.446 6.288-5.39-.02c-2.935-6.304-5.386-.014-5.386-.014s-2.447 6.294-5.386-.01c-2.935-6.304-5.37.039-5.37.039s-2.442 6.293-5.382-.015c-2.94-6.304-5.376-.019-5.376-.019" fill="none" stroke="#000" stroke-width=".5625" stroke-linecap="round" stroke-miterlimit="1"/><path d="M3.794 15.056s2.446 6.288 5.386-.02c2.939-6.304 5.39-.014 5.39-.014s2.441 6.294 5.381-.01c2.94-6.304 5.377.039 5.377.039s2.436 6.293 5.38-.015c2.935-6.304 5.376-.019 5.376-.019" fill="none" stroke="#000" stroke-width="1.125" stroke-linecap="round" stroke-miterlimit="1"/><path d="M35.518 15.056s-2.447 6.288-5.39-.02c-2.936-6.304-5.387-.014-5.387-.014s-2.446 6.294-5.386-.01c-2.934-6.304-5.37.039-5.37.039s-2.443 6.293-5.381-.015c-2.94-6.304-5.376-.019-5.376-.019" fill="none" stroke="#fff" stroke-width=".5625" stroke-linecap="round" stroke-miterlimit="1"/><path d="M3.228 15.056s2.446 6.288 5.386-.02c2.939-6.304 5.39-.014 5.39-.014s2.44 6.294 5.38-.01c2.94-6.304 5.377.039 5.377.039s2.436 6.293 5.38-.015c2.935-6.304 5.377-.019 5.377-.019" fill="none" stroke="#fff" stroke-width="1.125" stroke-linecap="round" stroke-miterlimit="1"/><path d="M36.084 27.125s-2.446 6.29-5.39-.018c-2.935-6.304-5.386-.015-5.386-.015s-2.447 6.294-5.386-.01c-2.935-6.304-5.37.039-5.37.039s-2.442 6.294-5.382-.014c-2.94-6.304-5.376-.015-5.376-.015" fill="none" stroke="#000" stroke-width=".5625" stroke-linecap="round" stroke-miterlimit="1"/><path d="M3.794 27.125s2.446 6.29 5.386-.018c2.939-6.304 5.39-.015 5.39-.015s2.441 6.294 5.381-.01c2.94-6.304 5.377.039 5.377.039s2.436 6.294 5.38-.014c2.935-6.304 5.376-.015 5.376-.015" fill="none" stroke="#000" stroke-width="1.125" stroke-linecap="round" stroke-miterlimit="1"/><path d="M35.518 27.125s-2.447 6.29-5.39-.018c-2.936-6.304-5.387-.015-5.387-.015s-2.446 6.294-5.386-.01c-2.934-6.304-5.37.039-5.37.039s-2.443 6.294-5.381-.014c-2.94-6.304-5.376-.02-5.376-.02" fill="none" stroke="#fff" stroke-width=".5625" stroke-linecap="round" stroke-miterlimit="1"/><path d="M3.228 27.125s2.446 6.29 5.386-.018c2.939-6.304 5.39-.015 5.39-.015s2.44 6.294 5.38-.01c2.94-6.304 5.377.039 5.377.039s2.436 6.294 5.38-.014c2.935-6.304 5.377-.02 5.377-.02" fill="none" stroke="#fff" stroke-width="1.125" stroke-linecap="round" stroke-miterlimit="1"/></svg>
